Numix-GalliumOS/22/actions/image-auto-adjust.svg

<?xml version="1.0" encoding="UTF-8" standalone="no"?>
<svg
   xmlns:dc="http://purl.org/dc/elements/1.1/"
   xmlns:cc="http://creativecommons.org/ns#"
   xmlns:rdf="http://www.w3.org/1999/02/22-rdf-syntax-ns#"
   xmlns:svg="http://www.w3.org/2000/svg"
   xmlns="http://www.w3.org/2000/svg"
   xmlns:sodipodi="http://sodipodi.sourceforge.net/DTD/sodipodi-0.dtd"
   xmlns:inkscape="http://www.inkscape.org/namespaces/inkscape"
   width="22"
   viewBox="0 0 22 22"
   height="22"
   id="svg2"
   version="1.1"
   inkscape:version="0.91 r13725"
   sodipodi:docname="image-auto-adjust.svg">
  <metadata
     id="metadata20">
    <rdf:RDF>
      <cc:Work
         rdf:about="">
        <dc:format>image/svg+xml</dc:format>
        <dc:type
           rdf:resource="http://purl.org/dc/dcmitype/StillImage" />
        <dc:title></dc:title>
      </cc:Work>
    </rdf:RDF>
  </metadata>
  <defs
     id="defs18" />
  <sodipodi:namedview
     pagecolor="#ffffff"
     bordercolor="#666666"
     borderopacity="1"
     objecttolerance="10"
     gridtolerance="10"
     guidetolerance="10"
     inkscape:pageopacity="0"
     inkscape:pageshadow="2"
     inkscape:window-width="1366"
     inkscape:window-height="704"
     id="namedview16"
     showgrid="true"
     inkscape:zoom="21.454545"
     inkscape:cx="4.3929857"
     inkscape:cy="10.84238"
     inkscape:window-x="0"
     inkscape:window-y="27"
     inkscape:window-maximized="1"
     inkscape:current-layer="svg2">
    <inkscape:grid
       type="xygrid"
       id="grid2987" />
  </sodipodi:namedview>
  <path
     inkscape:connector-curvature="0"
     id="path4157"
     style="fill:#e2b854;fill-opacity:1;fill-rule:nonzero;stroke:none"
     d="M 5.5043789,9.5000003 4.2537228,13.252781 0.5,14.504277 4.2537228,15.747219 5.5043789,19.5 6.7550368,15.747219 10.5,14.504277 6.7550368,13.252781 M 5.5043789,9.5000003" />
  <path
     inkscape:connector-curvature="0"
     id="path4159"
     style="fill:#e2b854;fill-opacity:1;fill-rule:nonzero;stroke:none"
     d="M 17.499999,4.4 16.5,7.3984143 l -3,1.004025 3,0.999147 0.999999,2.9984137 1,-2.9984137 L 21.5,8.4024393 18.499999,7.3984143 m -1,-2.9984143" />
  <path
     inkscape:connector-curvature="0"
     id="path4161"
     style="fill:#e2b854;fill-opacity:1;fill-rule:nonzero;stroke:none"
     d="M 13.499999,0.49999996 12.748947,2.7465382 10.5,3.4974352 12.748947,4.2483332 13.499999,6.5000003 14.251052,4.2483332 16.5,3.4974352 14.251052,2.7465382 M 13.499999,0.49999996" />
  <g
     id="g4171"
     transform="matrix(0.57951622,0.82610873,-0.82763492,0.57844757,27.950188,3.5040334)">
    <path
       style="opacity:1;fill:#5c6982;fill-opacity:1;stroke:none;stroke-width:0.5;stroke-linecap:round;stroke-linejoin:round;stroke-miterlimit:4;stroke-dasharray:none;stroke-opacity:1"
       d="m -7.9003906,16.000781 c -0.73015,-10e-4 -2.1015834,0.447585 -2.1006094,1.59961 C -10,18.783666 -8.6305406,19.2 -7.9003906,19.2 l 14.8005866,0 c 0.8864,0 1.599609,-0.713209 1.599609,-1.599609 0,-0.8864 -0.713209,-1.59961 -1.599609,-1.59961 z"
       id="rect4138"
       inkscape:connector-curvature="0"
       sodipodi:nodetypes="csssssc" />
    <path
       style="opacity:1;fill:#c59da1;fill-opacity:1;stroke:none;stroke-width:0.5;stroke-linecap:round;stroke-linejoin:round;stroke-miterlimit:4;stroke-dasharray:none;stroke-opacity:1"
       d="M -13.400391,16.000781 C -14.286791,16.000746 -15,16.713991 -15,17.600391 c 0,0.8864 0.713209,1.599641 1.599609,1.599609 l 5.5000004,-1.95e-4 C -8.4586656,19.199805 -9,18.462794 -9,17.600196 -9,16.737598 -8.4430406,16 -7.9003906,16.001 Z"
       id="rect4140"
       inkscape:connector-curvature="0"
       sodipodi:nodetypes="sssczcs" />
  </g>
</svg>

<svg xmlns="http://www.w3.org/2000/svg" viewBox="0 0 22 22">
 <path d="m 5.504 9.5 -1.251 3.753 -3.754 1.251 3.754 1.243 1.251 3.753 1.251 -3.753 3.745 -1.243 -3.745 -1.251 m -1.251 -3.753" style="fill:#e2b854;fill-opacity:1;stroke:none;fill-rule:nonzero"/>
 <path d="m 17.5 4.4 -1 2.998 l -3 1 3 0.999 1 2.998 1 -2.998 l 3 -0.999 -3 -1 m -1 -2.998" style="fill:#e2b854;fill-opacity:1;stroke:none;fill-rule:nonzero"/>
 <path d="m 13.5 0.5 -0.751 2.247 -2.249 0.751 2.249 0.751 0.751 2.252 0.751 -2.252 2.249 -0.751 -2.249 -0.751 m -0.751 -2.247" style="fill:#e2b854;fill-opacity:1;stroke:none;fill-rule:nonzero"/>
 <g transform="matrix(0.57951622,0.82610873,-0.82763492,0.57844757,27.950188,3.5040334)">
  <path d="m -7.9 16 c -0.73 -0.001 -2.102 0.448 -2.101 1.6 c 0.001 1.183 1.37 1.6 2.101 1.6 l 14.801 0 c 0.886 0 1.6 -0.713 1.6 -1.6 0 -0.886 -0.713 -1.6 -1.6 -1.6 z" style="fill:#5c6982;opacity:1;fill-opacity:1;stroke:none"/>
  <path d="m -13.4 16 c -0.886 0 -1.6 0.713 -1.6 1.6 c 0 0.886 0.713 1.6 1.6 1.6 l 5.5 0 c -0.558 0 -1.1 -0.737 -1.1 -1.6 0 -0.863 0.557 -1.6 1.1 -1.599" style="fill:#c59da1;opacity:1;fill-opacity:1;stroke:none"/>
 </g>
</svg>
